X: 1439
T: Dooley's Fancy   #2
R: reel
%S: s:2 b:14(6+6)
B: O'Neill's 1850 #1439
O: McFadden
Z: Bob Safranek, rjs@gsp.org
M: C|
L: 1/8
K: A
"^A"[|] e2 !segno!|: cAEA ceae | dcBA GABd | cAce \
[1 agaf | eagb afed :|\
[2 a2(af) | edcB HA2 "^B"|]| (fg) | a2ge fecA |
|  dcBA GAfg |  a2(ge) fecA | fagb aefg \
|| agag fedc | dcBA GABd \
| ((3cBA) (eA) fagb | afed cea!segno!e |]
